X:15
T:Wirri Waltz
% NFF Book 2024
S:collected from Cec Taylor and Harry Venn, Wirri, NSW
S:Rob Willis Collection, NLA
R:Waltz
M:3/4
L:1/8
K:G
"G"F>GF2.G2 | B2B2.B2 | F>GF2B2 | "C"c2c2c2 | F>GF2d2 | "D7"f2e2d2 |1 c2B2A2 | "G"B6 :|2 F2G2A2 | "G"G4z2 |]
|:"G"G3B d2| g3dB2 | G2zBg2 | "D7"f3ed<c | A6 | f2e2d2 |1 A2B2c2 | "G"B6 :|2F2G2A2 | "G"G4z2 |]

